X: 40
T:Irish Trot. JWDM.39
M:6/8
L:1/8
S:J.Winder MS,Wyresdale,Lancs.,1789
R:Trot
O:England
A:Lancashire
Z:vmp.Taz Tarry
K:G
efg gag|efg gag|agf edc|d>d f3 d:||!
:ece ece|ece fdf|ece d2d|f3d3:|]
